fs/brightness_low_24_regular.svg

<svg viewBox="0 0 24 24" fill="none" xmlns="http://www.w3.org/2000/svg" height="1em" width="1em">
  <path d="M12 3.5C12.4142 3.5 12.75 3.83579 12.75 4.25V5.25C12.75 5.66421 12.4142 6 12 6C11.5858 6 11.25 5.66421 11.25 5.25V4.25C11.25 3.83579 11.5858 3.5 12 3.5ZM12 17C14.7614 17 17 14.7614 17 12C17 9.23858 14.7614 7 12 7C9.23858 7 7 9.23858 7 12C7 14.7614 9.23858 17 12 17ZM12 15.5C10.067 15.5 8.5 13.933 8.5 12C8.5 10.067 10.067 8.5 12 8.5C13.933 8.5 15.5 10.067 15.5 12C15.5 13.933 13.933 15.5 12 15.5ZM19.75 12.75C20.1642 12.75 20.5 12.4142 20.5 12C20.5 11.5858 20.1642 11.25 19.75 11.25H18.75C18.3358 11.25 18 11.5858 18 12C18 12.4142 18.3358 12.75 18.75 12.75H19.75ZM12 18C12.4142 18 12.75 18.3358 12.75 18.75V19.75C12.75 20.1642 12.4142 20.5 12 20.5C11.5858 20.5 11.25 20.1642 11.25 19.75V18.75C11.25 18.3358 11.5858 18 12 18ZM5.25 12.75C5.66421 12.75 6 12.4142 6 12C6 11.5858 5.66421 11.25 5.25 11.25H4.25C3.83579 11.25 3.5 11.5858 3.5 12C3.5 12.4142 3.83579 12.75 4.25 12.75H5.25ZM6.21967 6.21967C6.51256 5.92678 6.98744 5.92678 7.28033 6.21967L7.78033 6.71967C8.07322 7.01256 8.07322 7.48744 7.78033 7.78033C7.48744 8.07322 7.01256 8.07322 6.71967 7.78033L6.21967 7.28033C5.92678 6.98744 5.92678 6.51256 6.21967 6.21967ZM7.28033 17.7803C6.98744 18.0732 6.51256 18.0732 6.21967 17.7803C5.92678 17.4874 5.92678 17.0126 6.21967 16.7197L6.71967 16.2197C7.01256 15.9268 7.48744 15.9268 7.78033 16.2197C8.07322 16.5126 8.07322 16.9874 7.78033 17.2803L7.28033 17.7803ZM17.7803 6.21967C17.4874 5.92678 17.0126 5.92678 16.7197 6.21967L16.2197 6.71967C15.9268 7.01256 15.9268 7.48744 16.2197 7.78033C16.5126 8.07322 16.9874 8.07322 17.2803 7.78033L17.7803 7.28033C18.0732 6.98744 18.0732 6.51256 17.7803 6.21967ZM16.7197 17.7803C17.0126 18.0732 17.4874 18.0732 17.7803 17.7803C18.0732 17.4874 18.0732 17.0126 17.7803 16.7197L17.2803 16.2197C16.9874 15.9268 16.5126 15.9268 16.2197 16.2197C15.9268 16.5126 15.9268 16.9874 16.2197 17.2803L16.7197 17.7803Z" fill="#212121"/>
</svg>

<svg viewBox="0 0 24 24" fill="none" xmlns="http://www.w3.org/2000/svg" height="1em" width="1em">
  <path d="M12 3.5a.75.75 0 0 1 .75.75v1a.75.75 0 0 1-1.5 0v-1A.75.75 0 0 1 12 3.5ZM12 17a5 5 0 1 0 0-10 5 5 0 0 0 0 10Zm0-1.5a3.5 3.5 0 1 1 0-7 3.5 3.5 0 0 1 0 7Zm7.75-2.75a.75.75 0 0 0 0-1.5h-1a.75.75 0 0 0 0 1.5h1ZM12 18a.75.75 0 0 1 .75.75v1a.75.75 0 0 1-1.5 0v-1A.75.75 0 0 1 12 18Zm-6.75-5.25a.75.75 0 0 0 0-1.5h-1a.75.75 0 0 0 0 1.5h1Zm.97-6.53a.75.75 0 0 1 1.06 0l.5.5a.75.75 0 0 1-1.06 1.06l-.5-.5a.75.75 0 0 1 0-1.06Zm1.06 11.56a.75.75 0 0 1-1.06-1.06l.5-.5a.75.75 0 0 1 1.06 1.06l-.5.5Zm10.5-11.56a.75.75 0 0 0-1.06 0l-.5.5a.75.75 0 0 0 1.06 1.06l.5-.5a.75.75 0 0 0 0-1.06Zm-1.06 11.56a.75.75 0 1 0 1.06-1.06l-.5-.5a.75.75 0 1 0-1.06 1.06l.5.5Z" fill="#212121"/>
</svg>
